!!!!SEGMENT: pl-kc--40102-iii-1-saf--001-046_zielenski-mikolaj--offertoria-totius-anni-motetto-in-festo-paschae-salve-festa-dies.krn
!!!cenid: 16xx:1525
!!!COM: Zieleński, Mikołaj
!!!COM-rismid: pe30013481
!!!CDT: <1611->1611
!!!CNT: Polish
!!!GTL: Offertoria totius anni
!!!OTL: Motetto in festo Paschae/Salve festa dies
!!!OMV: 046
!!!PDT: 1611
!!!AGN:
!!!SMS-siglum: PL-Kc
!!!SMS-shelfmark: 40102 III/1 Saf.
!!!SMS-shelfwork: 001-046 G
!!!SMS-variant:
!!!SMS-altvar:
!!!NIFC-rismid: 990069886
!!!URL-scan: https://cyfrowe.mnk.pl/dlibra/publication/24235/edition/23926/content?ref=desc
!!!ONB-nifc: UWAGA: str. 40. Uwaga: W xml metrum 2/1 do źródłowego C| i odpowiednio 3/1 do 3/2
!!!AIN: 4 organ
!!!key: G:mix
**kern	**kern	**kern	**kern
*group1	*group1	*group1	*group1
*part4	*part3	*part2	*part1
*staff4	*staff3	*staff2	*staff1
*I""Organo	*I	*I	*
*Iorgan	*Iorgan	*Iorgan	*Iorgan
*ICklav	*ICklav	*ICklav	*ICklav
*clefF4	*clefC3	*clefC4	*clefG2
*k[b-]	*k[b-]	*k[b-]	*k[b-]
*G:mix	*G:mix	*G:mix	*G:mix
*M2/1	*M2/1	*M2/1	*M2/1
*met(C|)	*met(C|)	*met(C|)	*met(C|)
=1	=1	=1	=1
!LO:TX:t=P:problem=all/middle&colon; global	!LO:TX:t=P:problem=all/middle&colon; global	!LO:TX:t=P:problem=all/middle&colon; global	!LO:TX:t=P:problem=all/middle&colon; global
!LO:TX:t=P:problem=all\middle&colon; global	!LO:TX:t=P:problem=all\middle&colon; global	!LO:TX:t=P:problem=all\middle&colon; global	!LO:TX:t=P:problem=all\middle&colon; global
!	!	!LO:TX:a:i:t=Salvi festa dies	!LO:TX:a:t=Motetto in feſto Paſchae. A 8. Replicartre volt
00r	00r	2.G/	1.gg
.	.	4A/	.
.	.	4B-\	.
.	.	4c\	.
.	.	2.d\	2ff\
=2-	=2-	=2-	=2-
.	.	.	1ee
.	.	8c#X\	.
!	!	!LO:SIC:v:s:t=8Bn	!
.	.	8B-\	.
.	.	2c#\	.
.	.	2d\	2a/
.	.	2B-\	2dd\
=3	=3	=3	=3
1r	1r	2G/	2dd\
.	.	2A/	2cc#X\
=4-	=4-	=4-	=4-
*M3/1	*M3/1	*M3/1	*M3/1
*met(3/2)	*met(3/2)	*met(3/2)	*met(3/2)
*	*	*col	*col
!	!	!LO:N:xstem:vis=4	!LO:N:xstem:vis=4
!	!	!LO:TX:t=P:problem=wszystkie nuty zaczernione do końca 4 taktu	!LO:TX:t=P:problem=wszystkie nuty zaczernione do końca 4 taktu
1r	1r	2D/	2dd\
.	.	4d\	4ff#X\
!	!	!	!LO:N:xstem:vis=4
.	.	8G/	2gg\
.	.	8A/	.
1.r	1.r	8B-\	.
.	.	8G/	.
.	.	4c\	4ee\
!	!	!LO:N:xstem:vis=4	!LO:N:xstem:vis=4
.	.	2F/	2ffny\
.	.	4B-\	4ee\
!LO:TX:t=P:problem=kreska pseudotaktowa	!LO:TX:t=P:problem=kreska pseudotaktowa	!LO:TX:t=P:problem=kreska pseudotaktowa	!LO:TX:t=P:problem=kreska pseudotaktowa
.	.	4G/	4dd\
!	!	!LO:N:vis=4:xstem	!LO:N:vis=4:xstem
2r	2r	2d\	2dd\
*	*	*Xcol	*Xcol
=5-	=5-	=5-	=5-
*M2/1	*M2/1	*M2/1	*M2/1
*met(C|)	*met(C|)	*met(C|)	*met(C|)
2r	1.g	1G	1dd
4GG/	.	.	.
4AA/	.	.	.
4BB-/	.	0r	0r
4C/	.	.	.
4D/	1f\	.	.
4E\	.	.	.
=6	=6	=6	=6
4F\	.	.	.
4D/	.	.	.
2.G\	2d\	.	.
!LO:TX:t=P::problem=kreska pseudotaktowa&colon;między nutą i kropką	!LO:TX:t=P:problem=kreska pseudotaktowa	!LO:TX:t=P:problem=kreska pseudotaktowa	!LO:TX:t=P:problem=kreska pseudotaktowa
.	1d	1r	1r
8F#X\	.	.	.
8E\	.	.	.
2F#\	.	.	.
=7-	=7-	=7-	=7-
2G\	2d\	0r	0r
2E-X\	2g\	.	.
2C/	2g\	.	.
2D/	2f#X\	.	.
=8-	=8-	=8-	=8-
*M3/1	*M3/1	*M3/1	*M3/1
*met(3/2)	*met(3/2)	*met(3/2)	*met(3/2)
*col	*col	*col	*col
!LO:N:xstem:vis=4	!LO:N:xstem:vis=4	!	!
!LO:TX:t=P:problem=wszystkie nuty do końca 10 taktu zaczernione	!LO:TX:t=P:problem=wszystkie nuty do końca 10 taktu zaczernione	!LO:TX:t=P:problem=wszystkie nuty do końca 10 taktu zaczernione	!LO:TX:t=P:problem=wszystkie nuty do końca 10 taktu zaczernione
2GG/	2g\	1r	1r
4G\	4g\	.	.
!	!LO:N:xstem:vis=4	!	!
!LO:TX:t=P:problem=kreska pseudotaktowa	!LO:TX:t=P:problem=kreska pseudotaktowa	!LO:TX:t=P:problem=kreska pseudotaktowa	!LO:TX:t=P:problem=kreska pseudotaktowa
8C/	2g\	.	.
8D/	.	.	.
8Eny\	.	0r	0r
8C/	.	.	.
4Fny\	4fny\	.	.
!	!LO:N:xstem:vis=4	!	!
8D\	2f\	.	.
8E\	.	.	.
8F\	.	.	.
8G\	.	.	.
4A\	4e\	.	.
4D/	4f\	.	.
!LO:N:xstem:vis=4	!LO:N:xstem:vis=4	!	!
2AA/	2e\	.	.
=9-	=9-	=9-	=9-
!LO:N:xstem:vis=4.	!LO:N:xstem:vis=4.	!	!
2.D/	2.f#X\	1r	1r
!LO:TX:t=P:problem=kreska pseudotaktowa	!LO:TX:t=P:problem=kreska pseudotaktowa	!	!
0r	0r	.	.
.	.	2r	2r
!	!	!LO:N:xstem:vis=4	!LO:N:xstem:vis=4
.	.	2d\	2dd\
!	!	!LO:N:xstem:vis=4	!LO:N:xstem:vis=4
!	!	!LO:TX:t=P:problem=kreska pseudotaktowa	!LO:TX:t=P:problem=kreska pseudotaktowa
.	.	2c\	2ee-X\
.	.	4e-X\	4cc\
!	!	!LO:N:xstem:vis=4	!LO:N:xstem:vis=4
2r	2r	2d\	2dd\
=10	=10	=10	=10
4D/	4d\	4A/	4ff#X\
!LO:N:xstem:vis=4	!	!LO:N:xstem:vis=4	!LO:N:xstem:vis=4
2GG/	4d\	2d\	2gg\
.	4g\	.	.
4C/	4c/	4G/	4ee\
!LO:N:xstem:vis=4	!	!LO:N:xstem:vis=4	!LO:N:xstem:vis=4
2FF/	4c/	2c\	2ffny\
.	4f\	.	.
4BB-/	4f\	4F/	4dd\
*custos:GG	*custos:B	*custos:B	*custos:gg
!LO:TX:t=P:problem=kreska pseudotaktowa	!LO:TX:t=P:problem=kreska pseudotaktowa	!LO:TX:t=P:problem=kreska pseudotaktowa	!LO:TX:t=P:problem=kreska pseudotaktowa
!	!	!LO:N:xstem:vis=4	!LO:N:xstem:vis=4
!LO:LB:g=original	!LO:LB:g=original	!LO:LB:g=original	!LO:LB:g=original
4GG/	4B-/	2B-\	2gg\
!LO:N:xstem:vis=4	!	!	!
2D\	4r	.	.
.	4A/	4d\	4ff\
*Xcol	*Xcol	*Xcol	*Xcol
=11-	=11-	=11-	=11-
*M2/1	*M2/1	*M2/1	*M2/1
*met(C|)	*met(C|)	*met(C|)	*met(C|)
1GG	2d\	2d\	2gg\
.	2d\	1G	1gg
1r	1d	.	.
.	.	2d\	2ff\
=12-	=12-	=12-	=12-
1r	1r	2A/	2ee\
.	.	2B-\	2dd\
!LO:TX:t=P:problem=kreska pseudotaktowa	!LO:TX:t=P:problem=kreska pseudotaktowa	!LO:TX:t=P:problem=kreska pseudotaktowa	!LO:TX:t=P:problem=kreska pseudotaktowa
00r	00r	2F/	2cc\
.	.	2G/	2b-/
=13-	=13-	=13-	=13-
.	.	2D/	2a/
.	.	2D/	2.dd\
.	.	2.B-\	.
.	.	.	4cc\
.	.	.	2.b-/
.	.	4A/	.
=14-	=14-	=14-	=14-
.	.	4G/	.
.	.	4F/	4a/
.	.	4E-X/	2g/
.	.	4D/	.
!LO:TX:t=P:problem=kreska pseudotaktowa	!LO:TX:t=P:problem=kreska pseudotaktowa	!LO:TX:t=P:problem=kreska pseudotaktowa	!LO:TX:t=P:problem=kreska pseudotaktowa
0r	0r	2C/	2ee-X\
.	.	2BB-/	2.dd\
=15-	=15-	=15-	=15-
.	.	2.D/	.
.	.	.	4cc\
.	.	.	2.b-/
.	.	4Eny/	.
1r	1r	1F	.
.	.	.	8a/
.	.	.	8g/
.	.	.	2a/
=16-	=16-	=16-	=16-
2r	2r	1BB-	1b-
!LO:TX:t=P:problem=kreska pseudotaktowa	!LO:TX:t=P:problem=kreska pseudotaktowa	!LO:TX:t=P:problem=kreska pseudotaktowa	!LO:TX:t=P:problem=kreska pseudotaktowa
[<2BB-/	[<2f\	.	.
2BB-/]	2f\]	00r	00r
2FF/	2f\	.	.
=17-	=17-	=17-	=17-
2C/	2e\	.	.
2GG/	2g\	.	.
1D	2f\	.	.
.	4e\	.	.
.	4d\	.	.
=18-	=18-	=18-	=18-
1E-X	2g\	.	.
.	2g\	.	.
!LO:TX:t=P:problem=kreska pseudotaktowa	!LO:TX:t=P:problem=kreska pseudotaktowa	!LO:TX:t=P:problem=kreska pseudotaktowa	!LO:TX:t=P:problem=kreska pseudotaktowa
2D/	2f#X\	00r	00r
2.G\	2.g\	.	.
=19-	=19-	=19-	=19-
.	.	.	.
4G\	4g\	.	.
2F\	2c/	.	.
2E-X\	2e-X\	.	.
2C/	2e-\	.	.
=20-	=20-	=20-	=20-
2.D/	(<1d	.	.
4Eny\	.	.	.
!LO:TX:t=P:problem=kreska pseudotaktowa	!LO:TX:t=P:problem=kreska pseudotaktowa	!LO:TX:t=P:problem=kreska pseudotaktowa	!LO:TX:t=P:problem=kreska pseudotaktowa
1F	1c)	1r	1r
=21-	=21-	=21-	=21-
*M3/1	*M3/1	*M3/1	*M3/1
*met(3/2)	*met(3/2)	*met(3/2)	*met(3/2)
*col	*col	*col	*col
!LO:N:vis=4:xstem	!LO:N:vis=4:xstem	!	!
!LO:TX:t=P:problem=do końca utworu wszystkie nuty zaczernione	!LO:TX:t=P:problem=do końca utworu wszystkie nuty zaczernione	!LO:TX:t=P:problem=do końca utworu wszystkie nuty zaczernione	!LO:TX:t=P:problem=do końca utworu wszystkie nuty zaczernione
2BB-/	2d\	1r	1r
4BB-/	4g\	.	.
!LO:SIC:v:s:t=2E-	!	!	!
!LO:N:vis=4:xstem	!LO:N:vis=4:xstem	!	!
2E\	2g\	.	.
.	.	0r	0r
4C/	4e-X\	.	.
!	!LO:N:vis=4:xstem	!	!
4.D/	2d\	.	.
8C/	.	.	.
4BB-/	4d\	.	.
!	!LO:N:vis=4:xstem	!	!
4GG/	2g\	.	.
!LO:N:vis=4:xstem	!	!	!
2D\	.	.	.
.	4f#X\	.	.
=22-	=22-	=22-	=22-
!LO:N:vis=4.:xstem	!LO:N:vis=4.:xstem	!	!
2.GG/	2.g\	2r	2r
.	.	4r	4r
1r	1r	4G/	4dd\
!	!	!LO:N:vis=4:xstem	!LO:N:vis=4:xstem
.	.	2c\	2ee-X\
.	.	4e-X\	4cc\
!	!	!LO:N:vis=4.:xstem	!LO:N:vis=4.:xstem
2r	2r	2.d\	2.dd\
4D/	4f#X\	.	.
!LO:N:vis=4:xstem	!LO:N:vis=4:xstem	!	!
!LO:TX:t=P:problem=kreska pseudotaktowa	!LO:TX:t=P:problem=kreska pseudotaktowa	!LO:TX:t=P:problem=kreska pseudotaktowa	!LO:TX:t=P:problem=kreska pseudotaktowa
2C/	2g\	2r	2r
=23-	=23-	=23-	=23-
4E-X\	4g\	2.r	2.r
!LO:N:vis=4:xstem	!LO:N:vis=4:xstem	!	!
2D\	2f#X\	.	.
4D/	4d\	4A/	4ff#X\
!LO:N:vis=4:xstem	!	!LO:N:vis=4:xstem	!LO:N:vis=4:xstem
2GG/	4d\	2d\	2gg\
.	4g\	.	.
4C/	4c/	4G/	4eeny\
!LO:N:vis=4:xstem	!	!LO:N:vis=4:xstem	!LO:N:vis=4:xstem
2FF/	4c/	2c\	2ffny\
.	4fny\	.	.
4BB-/	4f\	4F/	4dd\
!LO:TX:t=P:problem=kreska pseudotaktowa	!LO:TX:t=P:problem=kreska pseudotaktowa	!LO:TX:t=P:problem=kreska pseudotaktowa	!LO:TX:t=P:problem=kreska pseudotaktowa
!	!	!	!LO:N:vis=4:xstem
4GG/	4B-/	4B-\	2gg\
!LO:N:vis=4:xstem	!	!LO:N:vis=4:xstem	!
2D\	4r	2d\	.
=24	=24	=24	=24
.	4r	.	4ff#X\
!LO:N:vis=4:xstem	!	!LO:N:vis=4:xstem	!LO:N:vis=4:xstem
2GG/	2r	2d\	2gg\
4D/	4d\	4A/	4ff#X\
!LO:N:vis=4:xstem	!	!LO:N:vis=4:xstem	!LO:N:vis=4:xstem
2GG/	4d\	2d\	2gg\
.	4g\	.	.
4C/	4c/	4G/	4ee\
!LO:N:vis=4:xstem	!	!LO:N:vis=4:xstem	!LO:N:vis=4:xstem
2FF/	4c/	2c\	2ffny\
.	4f\	.	.
4BB-/	4f\	4F/	4dd\
!	!	!	!LO:N:vis=4:xstem
4GG/	4B-/	4B-\	2gg\
!LO:N:vis=4:xstem	!	!LO:N:vis=4:xstem	!
2D\	4r	2d\	.
=25-	=25-	=25-	=25-
.	4A/	.	4ff#X\
!	!LO:N:vis=4:xstem	!	!
0.GG/l	2d\	0.d\l	0.gg\l
.	4d\	.	.
.	[0dl	.	.
=26-	=26-	=26-	=26-
.	4d]	.	.
*Xcol	*Xcol	*Xcol	*Xcol
==	==	==	==
*-	*-	*-	*-
!!!system-decoration: g1
!!!RDF**kern: > = above
!!!RDF**kern: < = below
!!!RDF**kern: l = terminal long
!!!ENC: Filip Voros
!!!END: 2021-12-17
!!!EED: Jędrzej Mróz
!!!EST: 2021-12-21
